X:1
T:Le Papillon
T:Pièces Faciles et Agréables pour la Flûte ou Violon et Guitare 
T:Mauro Giuliani  (1781-1829)
T:Op.74
C:Giuliani
%%score { 1 ( 2 3 ) ( 4 5 ) }
L:1/8
Q:3/8=66
M:6/8
K:G
V:1 treble nm="Flûte"
V:2 treble-8 nm="Classical Guitar"
V:3 treble-8 
V:4 tab stafflines=6 strings=E2,A2,D3,G3,B3,E4 nostems nm="Guitare classique [Tablature]"
V:5 tab stafflines=6 strings=E2,A2,D3,G3,B3,E4 nostems 
V:1
S"^Grazioso" g3{/g} fef | g2 d' d'2 d' | b3- bc'a | g3 d2 z | g3{/g} fef | g2 d' d'2 d' | %6
 b3 d'c'a | g3 z3 | b3{/c'} bab | c'3 z2 a | ^g2 g{/a} gfg | a3 e2 z | a3{/b} aga | b3 z2 g | %14
 _b2 b bag | d2 z z3 | g3{/g} fef | g2 d' d'2 d' | b3- bc'a | g3 d2 z | g3{/g} fef | g2 d' d'2 d' | %22
 b3 d'c'a | g3 z3 | d3- dcB |{cd} e3 z3 | a3- agf |{ga} b3 z3 | d'3- d'c'b |{c'd'} e'3- e'c'a | %30
 f2 f{/g} fef | g2 z{/g} fef | g2 z{/g} fef | g2 z b2 z | g3 z3 |] %35
V:2
 z [DGB][DGB] z [DAc][DAc] | z [DGB][DGB] z [DAc][DAc] | z [DGB][DGB] z [DAc][DAc] | %3
 z [DGB][DGB] z [DGB][DGB] | z [DGB][DGB] z [DAc][DAc] | z [DGB][DGB] z [DAc][DAc] | %6
 z [DGB][DGB] z [DAc][DAc] | z [DGB][DGB] z [DGB][DGB] | z [^GBe][GBe] z [GBe][GBe] | %9
 z [Ace][Ace] z [Ace][Ace] | z [Bde][Bde] z [Bde][Bde] | z [Ace][Ace] z [Ace][Ace] | %12
 z [Acf][Acf] z [Acf][Acf] | z [GBg][GBg] z [GBg][GBg] | z [_B^cg][Bcg] z [Bcg][Bcg] | %15
 [df][ce][Bd] [Ac][GB][DA] | z [DGB][DGB] z [DAc][DAc] | z [DGB][DGB] z [DAc][DAc] | %18
 z [DGB][DGB] z [DAc][DAc] | z [DGB][DGB] z [DGB][DGB] | z [DGB][DGB] z [DAc][DAc] | %21
 z [DGB][DGB] z [DAc][DAc] | z [DGB][DGB] z [DAc][DAc] | z [DGB][DGB] z [GBg][GBg] | %24
 z [Gd=f][Gdf] z [Gdf][Gdf] | z [Gce][Gce] z [Gce][Gce] | z [DAc][DAc] z [DAc][DAc] | %27
 z [DGB][DGB] z [GBg][GBg] | z [Gd=f][Gdf] z [Gdf][Gdf] | z [Gce][Gce] z [Gce][Gce] | %30
 z [DAc][DAc] z [DAc][DAc] | z [DGB][DGB] z [DAc][DAc] | z [DGB][DGB] z [DAc][DAc] | %33
 [DGB]2 z [DGd]2 z | [GBg]3 z3 |] %35
V:3
 G,3 G,3 | G,3 G,3 | G,3 G,3 | G,3 G,3 | G,3 G,3 | G,3 G,3 | G,3 G,3 | G,3 G,3 | E,3 E,3 | %9
 E,3 E,3 | E,3 E,3 | A,3 A,3 | D3 D3 | G,3 G,3 | _E3 E3 | D3 z3 | G,3 G,3 | G,3 G,3 | G,3 G,3 | %19
 G,3 G,3 | G,3 G,3 | G,3 G,3 | G,3 G,3 | G,3 G,3 | G,3 G,3 | G,3 G,3 | G,3 G,3 | G,3 G,3 | %28
 G,3 G,3 | G,3 G,3 | G,3 G,3 | G,3 G,3 | G,3 G,3 | G,2 z G,2 z | G,3 z3 |] %35
V:4
 x [!4!D,!3!G,!2!B,] [!4!D,!3!G,!2!B,] x [!4!D,!3!A,!2!C] [!4!D,!3!A,!2!C] | %1
 x [!4!D,!3!G,!2!B,] [!4!D,!3!G,!2!B,] x [!4!D,!3!A,!2!C] [!4!D,!3!A,!2!C] | %2
 x [!4!D,!3!G,!2!B,] [!4!D,!3!G,!2!B,] x [!4!D,!3!A,!2!C] [!4!D,!3!A,!2!C] | %3
 x [!4!D,!3!G,!2!B,] [!4!D,!3!G,!2!B,] x [!4!D,!3!G,!2!B,] [!4!D,!3!G,!2!B,] | %4
 x [!4!D,!3!G,!2!B,] [!4!D,!3!G,!2!B,] x [!4!D,!3!A,!2!C] [!4!D,!3!A,!2!C] | %5
 x [!4!D,!3!G,!2!B,] [!4!D,!3!G,!2!B,] x [!4!D,!3!A,!2!C] [!4!D,!3!A,!2!C] | %6
 x [!4!D,!3!G,!2!B,] [!4!D,!3!G,!2!B,] x [!4!D,!3!A,!2!C] [!4!D,!3!A,!2!C] | %7
 x [!4!D,!3!G,!2!B,] [!4!D,!3!G,!2!B,] x [!4!D,!3!G,!2!B,] [!4!D,!3!G,!2!B,] | %8
 x [!3!^G,!2!B,!1!E] [!3!G,!2!B,!1!E] x [!3!G,!2!B,!1!E] [!3!G,!2!B,!1!E] | %9
 x [!3!A,!2!C!1!E] [!3!A,!2!C!1!E] x [!3!A,!2!C!1!E] [!3!A,!2!C!1!E] | %10
 x [!3!B,!2!D!1!E] [!3!B,!2!D!1!E] x [!3!B,!2!D!1!E] [!3!B,!2!D!1!E] | %11
 x [!3!A,!2!C!1!E] [!3!A,!2!C!1!E] x [!3!A,!2!C!1!E] [!3!A,!2!C!1!E] | %12
 x [!3!A,!2!C!1!F] [!3!A,!2!C!1!F] x [!3!A,!2!C!1!F] [!3!A,!2!C!1!F] | %13
 x [!3!G,!2!B,!1!G] [!3!G,!2!B,!1!G] x [!3!G,!2!B,!1!G] [!3!G,!2!B,!1!G] | %14
 x [!3!_B,!2!^C!1!G] [!3!B,!2!C!1!G] x [!3!B,!2!C!1!G] [!3!B,!2!C!1!G] | %15
 [!2!D!1!F] [!2!C!1!E] [!3!B,!2!D] [!3!A,!2!C] [!3!G,!2!B,] [!4!D,!3!A,] | %16
 x [!4!D,!3!G,!2!B,] [!4!D,!3!G,!2!B,] x [!4!D,!3!A,!2!C] [!4!D,!3!A,!2!C] | %17
 x [!4!D,!3!G,!2!B,] [!4!D,!3!G,!2!B,] x [!4!D,!3!A,!2!C] [!4!D,!3!A,!2!C] | %18
 x [!4!D,!3!G,!2!B,] [!4!D,!3!G,!2!B,] x [!4!D,!3!A,!2!C] [!4!D,!3!A,!2!C] | %19
 x [!4!D,!3!G,!2!B,] [!4!D,!3!G,!2!B,] x [!4!D,!3!G,!2!B,] [!4!D,!3!G,!2!B,] | %20
 x [!4!D,!3!G,!2!B,] [!4!D,!3!G,!2!B,] x [!4!D,!3!A,!2!C] [!4!D,!3!A,!2!C] | %21
 x [!4!D,!3!G,!2!B,] [!4!D,!3!G,!2!B,] x [!4!D,!3!A,!2!C] [!4!D,!3!A,!2!C] | %22
 x [!4!D,!3!G,!2!B,] [!4!D,!3!G,!2!B,] x [!4!D,!3!A,!2!C] [!4!D,!3!A,!2!C] | %23
 x [!4!D,!3!G,!2!B,] [!4!D,!3!G,!2!B,] x [!3!G,!2!B,!1!G] [!3!G,!2!B,!1!G] | %24
 x [!3!G,!2!D!1!=F] [!3!G,!2!D!1!F] x [!3!G,!2!D!1!F] [!3!G,!2!D!1!F] | %25
 x [!3!G,!2!C!1!E] [!3!G,!2!C!1!E] x [!3!G,!2!C!1!E] [!3!G,!2!C!1!E] | %26
 x [!4!D,!3!A,!2!C] [!4!D,!3!A,!2!C] x [!4!D,!3!A,!2!C] [!4!D,!3!A,!2!C] | %27
 x [!4!D,!3!G,!2!B,] [!4!D,!3!G,!2!B,] x [!3!G,!2!B,!1!G] [!3!G,!2!B,!1!G] | %28
 x [!3!G,!2!D!1!=F] [!3!G,!2!D!1!F] x [!3!G,!2!D!1!F] [!3!G,!2!D!1!F] | %29
 x [!3!G,!2!C!1!E] [!3!G,!2!C!1!E] x [!3!G,!2!C!1!E] [!3!G,!2!C!1!E] | %30
 x [!4!D,!3!A,!2!C] [!4!D,!3!A,!2!C] x [!4!D,!3!A,!2!C] [!4!D,!3!A,!2!C] | %31
 x [!4!D,!3!G,!2!B,] [!4!D,!3!G,!2!B,] x [!4!D,!3!A,!2!C] [!4!D,!3!A,!2!C] | %32
 x [!4!D,!3!G,!2!B,] [!4!D,!3!G,!2!B,] x [!4!D,!3!A,!2!C] [!4!D,!3!A,!2!C] | %33
 [!4!D,!3!G,!2!B,]2 x [!4!D,!3!G,!2!D]2 x | [!3!G,!2!B,!1!G]3 x x2 |] %35
V:5
 !6!G,,3 !6!G,,3 | !6!G,,3 !6!G,,3 | !6!G,,3 !6!G,,3 | !6!G,,3 !6!G,,3 | !6!G,,3 !6!G,,3 | %5
 !6!G,,3 !6!G,,3 | !6!G,,3 !6!G,,3 | !6!G,,3 !6!G,,3 | !6!E,,3 !6!E,,3 | !6!E,,3 !6!E,,3 | %10
 !6!E,,3 !6!E,,3 | !5!A,,3 !5!A,,3 | !4!D,3 !4!D,3 | !6!G,,3 !6!G,,3 | !4!_E,3 !4!E,3 | !4!D,3 x3 | %16
 !6!G,,3 !6!G,,3 | !6!G,,3 !6!G,,3 | !6!G,,3 !6!G,,3 | !6!G,,3 !6!G,,3 | !6!G,,3 !6!G,,3 | %21
 !6!G,,3 !6!G,,3 | !6!G,,3 !6!G,,3 | !6!G,,3 !6!G,,3 | !6!G,,3 !6!G,,3 | !6!G,,3 !6!G,,3 | %26
 !6!G,,3 !6!G,,3 | !6!G,,3 !6!G,,3 | !6!G,,3 !6!G,,3 | !6!G,,3 !6!G,,3 | !6!G,,3 !6!G,,3 | %31
 !6!G,,3 !6!G,,3 | !6!G,,3 !6!G,,3 | !6!G,,2 x !6!G,,2 x | !6!G,,3 x x2 |] %35

